X:1
T:Polska efter Emil Nilsson
O:Geresta, Ångermanland 
R:Polska
N:Håkan Lidén, 2010-12-09
N:Känd genom Håkan Olsson och Anders Eriksson
D:Rena rama Ångermanland
M:3/4
L:1/8
K:Dm
(3A=B^c d2 e2 | (3fef (3gfg a>b | a>g f>e d>g | f>e d<^c A2- | 
(3A=B^c d2 e2 | (3fef (3gfg a>b | a>g f>e d>^c |1 (3A=B^c d4 :|2  (3A=B^c d3 e ||
|: f>g a>f a>f | (3gfg (3bge c>e | (3fef a>f e>d | A>G (3FEF D2 | 
A2 (3d^cd (3ede | (3fef (3gfg a>b | a>g f>e d>^c |1 (3A=B^c d3 e :|2 (3A=B^c d4|]

